# Example taken from https://github.com/alda-lang/alda-core/blob/master/examples/across_the_sea.alda
(tempo! 90)
(quant! 95)

piano:
  o5 g- > g- g-/f > e- d-4. < b-8 d-2 | c-4 e- d- d- <b-1/>g-

flute:
  r2 g-4 a- b-2. > d-32~ e-16.~8 < b-2 a- g-1